svgs/nature/u1F30C.layer6.svg

<svg xmlns="http://www.w3.org/2000/svg" viewBox="0 0 512 512" enable-background="new 0 0 512 512"><path fill="#C4A6FF" d="M465.377 57.533c0 7.483-6.067 13.55-13.55 13.55s-13.55-6.067-13.55-13.55 6.067-13.55 13.55-13.55 13.55 6.067 13.55 13.55zm-254.072 105.49c-7.483 0-13.55 6.066-13.55 13.55s6.067 13.55 13.55 13.55 13.55-6.068 13.55-13.55-6.066-13.55-13.55-13.55zM27.13 173.027c-7.482 0-13.55 6.067-13.55 13.55s6.068 13.55 13.55 13.55 13.55-6.067 13.55-13.55-6.066-13.55-13.55-13.55zm125.824 67.348c-4.11 0-7.444 3.333-7.444 7.444 0 4.11 3.333 7.442 7.444 7.442 4.11 0 7.444-3.333 7.444-7.444 0-4.11-3.333-7.445-7.444-7.445zm197.265-47.69c-4.114 0-7.447 3.332-7.447 7.443 0 4.11 3.333 7.443 7.444 7.443s7.443-3.33 7.443-7.442c0-4.113-3.332-7.445-7.443-7.445zM85.79 36.54c-4.11 0-7.444 3.333-7.444 7.444s3.333 7.444 7.444 7.444c4.11 0 7.444-3.333 7.444-7.444S89.9 36.54 85.79 36.54zm179.612 287.512c-7.865 0-14.24 6.376-14.24 14.24s6.376 14.24 14.24 14.24 14.24-6.376 14.24-14.24-6.375-14.24-14.24-14.24z"/></svg>

<?xml version="1.0" encoding="iso-8859-1"?>
<!-- Generator: Adobe Illustrator 18.1.0, SVG Export Plug-In . SVG Version: 6.00 Build 0)  -->
<!DOCTYPE svg PUBLIC "-//W3C//DTD SVG 1.1//EN" "http://www.w3.org/Graphics/SVG/1.1/DTD/svg11.dtd">
<svg version="1.1" xmlns="http://www.w3.org/2000/svg" xmlns:xlink="http://www.w3.org/1999/xlink" x="0px" y="0px"
	 viewBox="0 0 512 512" enable-background="new 0 0 512 512" xml:space="preserve">
<g id="Layer_7">
	<path fill="#C4A6FF" d="M465.377,57.533c0,7.483-6.067,13.55-13.55,13.55s-13.55-6.067-13.55-13.55s6.067-13.55,13.55-13.55
		S465.377,50.05,465.377,57.533z M211.305,163.022c-7.483,0-13.55,6.067-13.55,13.55s6.067,13.55,13.55,13.55
		s13.55-6.067,13.55-13.55S218.789,163.022,211.305,163.022z M27.131,173.028c-7.483,0-13.55,6.067-13.55,13.55
		s6.067,13.55,13.55,13.55s13.55-6.067,13.55-13.55S34.614,173.028,27.131,173.028z M152.954,240.376
		c-4.111,0-7.444,3.333-7.444,7.444c0,4.111,3.333,7.444,7.444,7.444c4.111,0,7.444-3.333,7.444-7.444
		C160.398,243.709,157.065,240.376,152.954,240.376z M350.219,192.685c-4.111,0-7.444,3.333-7.444,7.444
		c0,4.111,3.333,7.444,7.444,7.444s7.444-3.333,7.444-7.444C357.663,196.017,354.33,192.685,350.219,192.685z M85.792,36.54
		c-4.111,0-7.444,3.333-7.444,7.444s3.333,7.444,7.444,7.444c4.111,0,7.444-3.333,7.444-7.444S89.903,36.54,85.792,36.54z
		 M265.404,324.052c-7.865,0-14.24,6.376-14.24,14.24s6.376,14.24,14.24,14.24s14.24-6.376,14.24-14.24
		S273.269,324.052,265.404,324.052z"/>
</g>
<g id="Layer_1">
</g>
</svg>
